!! 00000] TT[00
!! NN
!!!OTL: Duan youtong haozi
!!!ARE: Asia, Ostasien, China, .....
!! Ethnic Group: Han
!! Haozi - Artikel, Essen 1991
!!!SCT: C0000
!!!YEM: Copyright 1995, estate of Helmut Schaffrath.
**kern
*ICvox
*Ivox
*M2/4
*k[f#]
*G:
{2ee
=1
4ee
8dd
8ee
=2
4aa
8gg
8ee
=3
4dd
8dd
8r}
=4
{8aa
16aa
16aa
8ff#
8ff#
=5
8.ee
16dd
8dd
8ee
=6
4aa
8gg
8ee
=7
4dd
8dd
8r}
=8
{8aa
16aa
16aa
8ff#
8ff#
=9
8.ee
16dd
8dd
8ee
=10
4aa
8gg
8ee
=11
4dd
8dd
8r}
=12
{8aa
16aa
16aa
8dd
16dd
16b
=13
4dd
8dd
8ee
=14
4aa
8gg
8ee
=15
4dd
8dd
8r}
==
!!!AGN: Haozi zum Tragen von ôleimern
!! Die Phraseneinteilung ist relativ willkÅrlich. Der Arbeitsrhytmus..
!!!ONB: ESAC (Essen Associative Code) Database: CHINAx
!!!AMT: simple duple
!!!AIN: vox
!!!EED: Helmut Schaffrath
!!!EEV: 1.0
*-
